X:159
T:The Maid That Sold Her Barley
T:Déanta {Ready for the Storm}
M:6/8
L:1/8
C:intro ~ v 1 ~ v 2
C:interlude ~ v3
C:extension ~ v4
C:interlude
K:A Aeolian
P:Intro
A,B,C DEG|A2A- A2B|cBA BAG|A2A- A2d|!
cBA BAG|A2G E2D|EDC D2 C|A,6-|A,4||!
cd|"Am"e2e d2e|c2A "Em"G2G|"Am"A2A "Em"GEG|"Am"A2A- Acd|!
w:It's_ cold and raw, the north winds blow. Black in the mor-n-ing ear-ly *When_
e2e d2e|c2A "Em"G2G|"Am"A2A "Em"GEG|A2A- A3|
w:all the hills were covered with snow. Oh then it was win-ter fair-ly. As
"C"A2A c2d|e2d "C/B"c2d|"Am"e2a a2g|a2e- e2g|!
w:I was rid-ing o'er the moor. I met a farm-er's daugh-ter. *Her
a2e d2e|c2A "Em"G2G|"Am"A2A "Em"GEG|"Am"A2A- A3|!
w:cher-ry cheeks and sloe-black eyes. They caused my he-art to fal-ter_
P:Extension
A,B,C DEG|A2E DCB,|A,6-|A,6||!
P:Interlude
|:~e3 dBA|~e3 dBA|BAG DGG|1BAG ABd:|2BAG A3||
%%stretchlast
W:
W:I bowed my bonnet very low
W:To let her know my meaning.
W:She answered with a courteous smile
W:Her looks they were engaging.
W:"Where are you bound my pretty maid
W:It's now in the morning early?"
W:The answer that she gave to me
W:"Kind sir, to sell my barley."
W:
W:
W:"Now twenty guineas I've in my purse
W:And twenty more that's yearly.
W:You need not go to the market town
W:For I'll buy all your barley.
W:If twenty guineas would gain the heart
W:Of the maid I love so dearly
W:All for to tarry with me one night
W:And go home in the morning early."
W:
W:
W:As I was riding o'er the moor
W:The very evening after
W:It was my fortune for to meet
W:The farmer's only daughter.
W:Although the weather being cold and raw
W:With her I thought to parlay
W:The answer that she gave to me:
W:Kind sir, I've sold my barley.

